X:12489
%15669
T:So-so Polka
% Nottingham Music Database
S:Lesley Dolman, via EF
M:2/2
K:Cmaj
P:A
"C"G,2E2 EDC2|"C"G,2E2 EDC2|"C"G,2E2 EDC2|"G7"G2B,2 B,4|"G7"G,2F2 FED2|
"G7"G,2F2 FED2|"G7"G,2F2 FED2|"C"A2E2 E4|"C"G,2E2 EDC2|"C"G,2E2 EDC2|

%Error : Guitar chord name not properly closed
"C7"
